assets/1. F-P/Optical disk/Color/Optical.Disk-color.svg

<svg width="100%" height="100%" viewBox="0 0 32 32" fill="none" xmlns="http://www.w3.org/2000/svg">
<g filter="url(#filter0_iii_18_19843)">
<path fill-rule="evenodd" clip-rule="evenodd" d="M16.1881 30.0166C23.9293 30.0166 30.2047 23.7412 30.2047 16C30.2047 8.25885 23.9293 1.9834 16.1881 1.9834C8.44696 1.9834 2.17151 8.25885 2.17151 16C2.17151 23.7412 8.44696 30.0166 16.1881 30.0166ZM16.1881 19.3118C18.0172 19.3118 19.5 17.8291 19.5 16C19.5 14.1709 18.0172 12.6882 16.1881 12.6882C14.3591 12.6882 12.8763 14.1709 12.8763 16C12.8763 17.8291 14.3591 19.3118 16.1881 19.3118Z" fill="url(#paint0_linear_18_19843)"/>
</g>
<g filter="url(#filter1_f_18_19843)">
<path fill-rule="evenodd" clip-rule="evenodd" d="M16.1881 29.1159C23.4318 29.1159 29.304 23.2437 29.304 16C29.304 8.75625 23.4318 2.88403 16.1881 2.88403C8.94436 2.88403 3.07214 8.75625 3.07214 16C3.07214 23.2437 8.94436 29.1159 16.1881 29.1159ZM19.9596 16C19.9596 17.8291 18.0172 19.9029 16.1881 19.9029C14.359 19.9029 12.1914 17.8291 12.1914 16C12.1914 14.1709 14.359 11.9845 16.1881 11.9845C18.0172 11.9845 19.9596 14.1709 19.9596 16Z" fill="url(#paint1_linear_18_19843)"/>
</g>
<g filter="url(#filter2_f_18_19843)">
<path d="M12.8942 13.1752C13.69 12.2481 14.8705 11.6608 16.1881 11.6608C17.4006 11.6608 18.497 12.1582 19.2844 12.96L25.0673 7.1771C25.3013 6.9431 25.3028 6.5628 25.0591 6.33891C22.724 4.19366 19.609 2.88403 16.1881 2.88403C12.5662 2.88403 9.28725 4.35209 6.91373 6.72561C6.83554 6.8038 6.75834 6.88298 6.68213 6.96311L12.8942 13.1752Z" fill="url(#paint2_linear_18_19843)"/>
</g>
<g filter="url(#filter3_f_18_19843)">
<path d="M19.0129 19.2939C18.2538 19.9455 17.2669 20.3392 16.1881 20.3392C15.0042 20.3392 13.931 19.8651 13.1481 19.0963L7.36778 24.8767C7.13279 25.1117 7.13246 25.494 7.37861 25.7172C9.70676 27.8292 12.7972 29.116 16.1881 29.116C19.3572 29.116 22.2639 27.992 24.5311 26.121C24.7696 25.9241 25.001 25.719 25.225 25.506L19.0129 19.2939Z" fill="url(#paint3_linear_18_19843)"/>
</g>
<g filter="url(#filter4_f_18_19843)">
<path d="M16.1881 20.3642C18.5984 20.3642 20.5523 18.4103 20.5523 16C20.5523 13.5898 18.5984 11.6359 16.1881 11.6359C13.7779 11.6359 11.824 13.5898 11.824 16C11.824 18.4103 13.7779 20.3642 16.1881 20.3642Z" stroke="#C6B7DC" stroke-width="0.05"/>
</g>
<g filter="url(#filter5_f_18_19843)">
<path d="M26.4697 7.85559L19.2182 13.8809C19.6738 14.5441 19.9596 15.2983 19.9596 16C19.9596 16.8956 19.4939 17.8498 18.8038 18.5906C21.1888 20.7779 24.1433 23.4804 25.7741 24.9519C27.9638 22.6081 29.304 19.4606 29.304 16C29.304 12.9226 28.2442 10.0928 26.4697 7.85559Z" fill="url(#paint4_linear_18_19843)"/>
<path d="M26.4697 7.85559L19.2182 13.8809C19.6738 14.5441 19.9596 15.2983 19.9596 16C19.9596 16.8956 19.4939 17.8498 18.8038 18.5906C21.1888 20.7779 24.1433 23.4804 25.7741 24.9519C27.9638 22.6081 29.304 19.4606 29.304 16C29.304 12.9226 28.2442 10.0928 26.4697 7.85559Z" fill="url(#paint5_linear_18_19843)"/>
<path d="M26.4697 7.85559L19.2182 13.8809C19.6738 14.5441 19.9596 15.2983 19.9596 16C19.9596 16.8956 19.4939 17.8498 18.8038 18.5906C21.1888 20.7779 24.1433 23.4804 25.7741 24.9519C27.9638 22.6081 29.304 19.4606 29.304 16C29.304 12.9226 28.2442 10.0928 26.4697 7.85559Z" fill="url(#paint6_linear_18_19843)"/>
</g>
<g filter="url(#filter6_f_18_19843)">
<path d="M5.9065 7.85559L13.158 13.8809C12.7024 14.5441 12.4166 15.2983 12.4166 16C12.4166 16.8956 12.8823 17.8498 13.5724 18.5906C11.1874 20.7779 8.23288 23.4804 6.60209 24.9519C4.41237 22.6081 3.07214 19.4606 3.07214 16C3.07214 12.9226 4.13196 10.0928 5.9065 7.85559Z" fill="url(#paint7_linear_18_19843)"/>
<path d="M5.9065 7.85559L13.158 13.8809C12.7024 14.5441 12.4166 15.2983 12.4166 16C12.4166 16.8956 12.8823 17.8498 13.5724 18.5906C11.1874 20.7779 8.23288 23.4804 6.60209 24.9519C4.41237 22.6081 3.07214 19.4606 3.07214 16C3.07214 12.9226 4.13196 10.0928 5.9065 7.85559Z" fill="url(#paint8_linear_18_19843)"/>
<path d="M5.9065 7.85559L13.158 13.8809C12.7024 14.5441 12.4166 15.2983 12.4166 16C12.4166 16.8956 12.8823 17.8498 13.5724 18.5906C11.1874 20.7779 8.23288 23.4804 6.60209 24.9519C4.41237 22.6081 3.07214 19.4606 3.07214 16C3.07214 12.9226 4.13196 10.0928 5.9065 7.85559Z" fill="url(#paint9_linear_18_19843)"/>
</g>
<g filter="url(#filter7_i_18_19843)">
<path fill-rule="evenodd" clip-rule="evenodd" d="M16.1881 20.3392C18.5846 20.3392 20.5273 18.3965 20.5273 16C20.5273 13.6036 18.5846 11.6609 16.1881 11.6609C13.7917 11.6609 11.849 13.6036 11.849 16C11.849 18.3965 13.7917 20.3392 16.1881 20.3392ZM19.5 16C19.5 17.8291 18.0172 19.3119 16.1881 19.3119C14.3591 19.3119 12.8763 17.8291 12.8763 16C12.8763 14.171 14.3591 12.6882 16.1881 12.6882C18.0172 12.6882 19.5 14.171 19.5 16Z" fill="url(#paint10_radial_18_19843)"/>
</g>
<defs>
<filter id="filter0_iii_18_19843" x="1.92151" y="1.7334" width="28.5332" height="28.5332" filterUnits="userSpaceOnUse" color-interpolation-filters="sRGB">
<feFlood flood-opacity="0" result="BackgroundImageFix"/>
<feBlend mode="normal" in="SourceGraphic" in2="BackgroundImageFix" result="shape"/>
<feColorMatrix in="SourceAlpha" type="matrix" values="0 0 0 0 0 0 0 0 0 0 0 0 0 0 0 0 0 0 127 0" result="hardAlpha"/>
<feOffset dy="-0.25"/>
<feGaussianBlur stdDeviation="0.25"/>
<feComposite in2="hardAlpha" operator="arithmetic" k2="-1" k3="1"/>
<feColorMatrix type="matrix" values="0 0 0 0 0.623529 0 0 0 0 0.454902 0 0 0 0 0.764706 0 0 0 1 0"/>
<feBlend mode="normal" in2="shape" result="effect1_innerShadow_18_19843"/>
<feColorMatrix in="SourceAlpha" type="matrix" values="0 0 0 0 0 0 0 0 0 0 0 0 0 0 0 0 0 0 127 0" result="hardAlpha"/>
<feOffset dx="0.25"/>
<feGaussianBlur stdDeviation="0.25"/>
<feComposite in2="hardAlpha" operator="arithmetic" k2="-1" k3="1"/>
<feColorMatrix type="matrix" values="0 0 0 0 0.74902 0 0 0 0 0.737255 0 0 0 0 0.764706 0 0 0 1 0"/>
<feBlend mode="normal" in2="effect1_innerShadow_18_19843" result="effect2_innerShadow_18_19843"/>
<feColorMatrix in="SourceAlpha" type="matrix" values="0 0 0 0 0 0 0 0 0 0 0 0 0 0 0 0 0 0 127 0" result="hardAlpha"/>
<feOffset dx="-0.25" dy="0.25"/>
<feGaussianBlur stdDeviation="0.25"/>
<feComposite in2="hardAlpha" operator="arithmetic" k2="-1" k3="1"/>
<feColorMatrix type="matrix" values="0 0 0 0 0.905882 0 0 0 0 0.882353 0 0 0 0 0.92549 0 0 0 1 0"/>
<feBlend mode="normal" in2="effect2_innerShadow_18_19843" result="effect3_innerShadow_18_19843"/>
</filter>
<filter id="filter1_f_18_19843" x="2.82214" y="2.63403" width="26.7319" height="26.7319" filterUnits="userSpaceOnUse" color-interpolation-filters="sRGB">
<feFlood flood-opacity="0" result="BackgroundImageFix"/>
<feBlend mode="normal" in="SourceGraphic" in2="BackgroundImageFix" result="shape"/>
<feGaussianBlur stdDeviation="0.125" result="effect1_foregroundBlur_18_19843"/>
</filter>
<filter id="filter2_f_18_19843" x="6.43213" y="2.63403" width="19.0602" height="10.7911" filterUnits="userSpaceOnUse" color-interpolation-filters="sRGB">
<feFlood flood-opacity="0" result="BackgroundImageFix"/>
<feBlend mode="normal" in="SourceGraphic" in2="BackgroundImageFix" result="shape"/>
<feGaussianBlur stdDeviation="0.125" result="effect1_foregroundBlur_18_19843"/>
</filter>
<filter id="filter3_f_18_19843" x="6.94275" y="18.8463" width="18.5322" height="10.5197" filterUnits="userSpaceOnUse" color-interpolation-filters="sRGB">
<feFlood flood-opacity="0" result="BackgroundImageFix"/>
<feBlend mode="normal" in="SourceGraphic" in2="BackgroundImageFix" result="shape"/>
<feGaussianBlur stdDeviation="0.125" result="effect1_foregroundBlur_18_19843"/>
</filter>
<filter id="filter4_f_18_19843" x="11.699" y="11.5108" width="8.97832" height="8.97832" filterUnits="userSpaceOnUse" color-interpolation-filters="sRGB">
<feFlood flood-opacity="0" result="BackgroundImageFix"/>
<feBlend mode="normal" in="SourceGraphic" in2="BackgroundImageFix" result="shape"/>
<feGaussianBlur stdDeviation="0.05" result="effect1_foregroundBlur_18_19843"/>
</filter>
<filter id="filter5_f_18_19843" x="18.3038" y="7.35559" width="11.5002" height="18.0963" filterUnits="userSpaceOnUse" color-interpolation-filters="sRGB">
<feFlood flood-opacity="0" result="BackgroundImageFix"/>
<feBlend mode="normal" in="SourceGraphic" in2="BackgroundImageFix" result="shape"/>
<feGaussianBlur stdDeviation="0.25" result="effect1_foregroundBlur_18_19843"/>
</filter>
<filter id="filter6_f_18_19843" x="2.57214" y="7.35559" width="11.5002" height="18.0963" filterUnits="userSpaceOnUse" color-interpolation-filters="sRGB">
<feFlood flood-opacity="0" result="BackgroundImageFix"/>
<feBlend mode="normal" in="SourceGraphic" in2="BackgroundImageFix" result="shape"/>
<feGaussianBlur stdDeviation="0.25" result="effect1_foregroundBlur_18_19843"/>
</filter>
<filter id="filter7_i_18_19843" x="11.599" y="11.6609" width="8.92834" height="8.67834" filterUnits="userSpaceOnUse" color-interpolation-filters="sRGB">
<feFlood flood-opacity="0" result="BackgroundImageFix"/>
<feBlend mode="normal" in="SourceGraphic" in2="BackgroundImageFix" result="shape"/>
<feColorMatrix in="SourceAlpha" type="matrix" values="0 0 0 0 0 0 0 0 0 0 0 0 0 0 0 0 0 0 127 0" result="hardAlpha"/>
<feOffset dx="-0.25"/>
<feGaussianBlur stdDeviation="0.25"/>
<feComposite in2="hardAlpha" operator="arithmetic" k2="-1" k3="1"/>
<feColorMatrix type="matrix" values="0 0 0 0 0.741176 0 0 0 0 0.678431 0 0 0 0 0.811765 0 0 0 1 0"/>
<feBlend mode="normal" in2="shape" result="effect1_innerShadow_18_19843"/>
</filter>
<linearGradient id="paint0_linear_18_19843" x1="16.1881" y1="1.9834" x2="16.1881" y2="30.0166" gradientUnits="userSpaceOnUse">
<stop stop-color="#D0C9D8"/>
<stop offset="1" stop-color="#B09AC4"/>
</linearGradient>
<linearGradient id="paint1_linear_18_19843" x1="16.1881" y1="8.41938" x2="16.1881" y2="29.1159" gradientUnits="userSpaceOnUse">
<stop stop-color="#D1C7DB"/>
<stop offset="1" stop-color="#BFACD0"/>
</linearGradient>
<linearGradient id="paint2_linear_18_19843" x1="25.2423" y1="6.91827" x2="11.7807" y2="6.91827" gradientUnits="userSpaceOnUse">
<stop stop-color="#FDEBFF"/>
<stop offset="1" stop-color="#FDEBFF" stop-opacity="0"/>
</linearGradient>
<linearGradient id="paint3_linear_18_19843" x1="11.3658" y1="19.9405" x2="19.2293" y2="19.9405" gradientUnits="userSpaceOnUse">
<stop stop-color="#EBD8FE"/>
<stop offset="1" stop-color="#EBD8FE" stop-opacity="0"/>
</linearGradient>
<linearGradient id="paint4_linear_18_19843" x1="24.0539" y1="9.74996" x2="24.0539" y2="22.4375" gradientUnits="userSpaceOnUse">
<stop stop-color="#E8C0DD"/>
<stop offset="0.295567" stop-color="#EED0DE"/>
<stop offset="0.655513" stop-color="#D0CFDE"/>
<stop offset="1" stop-color="#CDB9F2"/>
</linearGradient>
<linearGradient id="paint5_linear_18_19843" x1="22.1875" y1="10.9375" x2="23.5" y2="12.75" gradientUnits="userSpaceOnUse">
<stop offset="0.234399" stop-color="#D2C8DC"/>
<stop offset="1" stop-color="#D2C8DC" stop-opacity="0"/>
</linearGradient>
<linearGradient id="paint6_linear_18_19843" x1="21.7188" y1="21.25" x2="22.9063" y2="19.8125" gradientUnits="userSpaceOnUse">
<stop stop-color="#C6B6D5"/>
<stop offset="1" stop-color="#C6B6D5" stop-opacity="0"/>
</linearGradient>
<linearGradient id="paint7_linear_18_19843" x1="9.75" y1="22.125" x2="9.75" y2="10.8125" gradientUnits="userSpaceOnUse">
<stop stop-color="#E8C0DD"/>
<stop offset="0.295567" stop-color="#EED0DE"/>
<stop offset="0.655513" stop-color="#D0CFDE"/>
<stop offset="1" stop-color="#CDB9F2"/>
</linearGradient>
<linearGradient id="paint8_linear_18_19843" x1="10.1887" y1="10.9375" x2="8.32225" y2="13.375" gradientUnits="userSpaceOnUse">
<stop offset="0.234399" stop-color="#D2C8DC"/>
<stop offset="1" stop-color="#D2C8DC" stop-opacity="0"/>
</linearGradient>
<linearGradient id="paint9_linear_18_19843" x1="10.9375" y1="21.25" x2="9.5" y2="18.9375" gradientUnits="userSpaceOnUse">
<stop stop-color="#C6B6D5"/>
<stop offset="1" stop-color="#C6B6D5" stop-opacity="0"/>
</linearGradient>
<radialGradient id="paint10_radial_18_19843" cx="0" cy="0" r="1" gradientUnits="userSpaceOnUse" gradientTransform="translate(12.7544 16) scale(9.23183)">
<stop offset="0.62037" stop-color="#C9B9DB"/>
<stop offset="0.899659" stop-color="#C7B8D4"/>
</radialGradient>
</defs>
</svg>

<svg width="100%" height="100%" viewBox="0 0 32 32" xmlns="http://www.w3.org/2000/svg"><g filter="url(#a)"><path fill="url(#b)" fill-rule="evenodd" d="M16.188 30.017c7.741 0 14.017-6.276 14.017-14.017S23.929 1.983 16.188 1.983 2.172 8.26 2.172 16s6.275 14.017 14.016 14.017m0-10.705a3.312 3.312 0 1 0 0-6.624 3.312 3.312 0 0 0 0 6.624" clip-rule="evenodd"/></g><g filter="url(#c)"><path fill="url(#d)" fill-rule="evenodd" d="M16.188 29.116c7.244 0 13.116-5.872 13.116-13.116S23.432 2.884 16.188 2.884 3.072 8.756 3.072 16s5.872 13.116 13.116 13.116M19.96 16c0 1.83-1.943 3.903-3.772 3.903S12.191 17.829 12.191 16s2.168-4.015 3.997-4.015c1.83 0 3.772 2.186 3.772 4.015" clip-rule="evenodd"/></g><g filter="url(#e)"><path fill="url(#f)" d="M12.894 13.175a4.33 4.33 0 0 1 3.294-1.514c1.213 0 2.309.497 3.096 1.299l5.783-5.783a.58.58 0 0 0-.008-.838 13.07 13.07 0 0 0-8.87-3.455 13.08 13.08 0 0 0-9.507 4.08z"/></g><g filter="url(#g)"><path fill="url(#h)" d="M19.013 19.294a4.32 4.32 0 0 1-2.825 1.045 4.33 4.33 0 0 1-3.04-1.243l-5.78 5.78a.58.58 0 0 0 .01.841 13.07 13.07 0 0 0 8.81 3.399 13.06 13.06 0 0 0 9.037-3.61z"/></g><g filter="url(#i)"><path stroke="#C6B7DC" stroke-width=".05" d="M16.188 20.364a4.364 4.364 0 1 0 0-8.728 4.364 4.364 0 0 0 0 8.728Z"/></g><g filter="url(#j)"><path fill="url(#k)" d="m26.47 7.856-7.252 6.025c.456.663.742 1.417.742 2.119 0 .896-.466 1.85-1.156 2.59 2.385 2.188 5.34 4.89 6.97 6.362A13.07 13.07 0 0 0 29.304 16a13.06 13.06 0 0 0-2.834-8.144"/><path fill="url(#l)" d="m26.47 7.856-7.252 6.025c.456.663.742 1.417.742 2.119 0 .896-.466 1.85-1.156 2.59 2.385 2.188 5.34 4.89 6.97 6.362A13.07 13.07 0 0 0 29.304 16a13.06 13.06 0 0 0-2.834-8.144"/><path fill="url(#m)" d="m26.47 7.856-7.252 6.025c.456.663.742 1.417.742 2.119 0 .896-.466 1.85-1.156 2.59 2.385 2.188 5.34 4.89 6.97 6.362A13.07 13.07 0 0 0 29.304 16a13.06 13.06 0 0 0-2.834-8.144"/></g><g filter="url(#n)"><path fill="url(#o)" d="m5.907 7.856 7.251 6.025c-.456.663-.741 1.417-.741 2.119 0 .896.465 1.85 1.155 2.59-2.385 2.188-5.34 4.89-6.97 6.362A13.07 13.07 0 0 1 3.072 16a13.06 13.06 0 0 1 2.835-8.144"/><path fill="url(#p)" d="m5.907 7.856 7.251 6.025c-.456.663-.741 1.417-.741 2.119 0 .896.465 1.85 1.155 2.59-2.385 2.188-5.34 4.89-6.97 6.362A13.07 13.07 0 0 1 3.072 16a13.06 13.06 0 0 1 2.835-8.144"/><path fill="url(#q)" d="m5.907 7.856 7.251 6.025c-.456.663-.741 1.417-.741 2.119 0 .896.465 1.85 1.155 2.59-2.385 2.188-5.34 4.89-6.97 6.362A13.07 13.07 0 0 1 3.072 16a13.06 13.06 0 0 1 2.835-8.144"/></g><g filter="url(#r)"><path fill="url(#s)" fill-rule="evenodd" d="M16.188 20.34a4.34 4.34 0 1 0 0-8.68 4.34 4.34 0 0 0 0 8.68M19.5 16a3.312 3.312 0 1 1-6.624 0 3.312 3.312 0 0 1 6.624 0" clip-rule="evenodd"/></g><defs><linearGradient id="b" x1="16.188" x2="16.188" y1="1.983" y2="30.017" gradientUnits="userSpaceOnUse"><stop stop-color="#D0C9D8"/><stop offset="1" stop-color="#B09AC4"/></linearGradient><linearGradient id="d" x1="16.188" x2="16.188" y1="8.419" y2="29.116" gradientUnits="userSpaceOnUse"><stop stop-color="#D1C7DB"/><stop offset="1" stop-color="#BFACD0"/></linearGradient><linearGradient id="f" x1="25.242" x2="11.781" y1="6.918" y2="6.918" gradientUnits="userSpaceOnUse"><stop stop-color="#FDEBFF"/><stop offset="1" stop-color="#FDEBFF" stop-opacity="0"/></linearGradient><linearGradient id="h" x1="11.366" x2="19.229" y1="19.941" y2="19.941" gradientUnits="userSpaceOnUse"><stop stop-color="#EBD8FE"/><stop offset="1" stop-color="#EBD8FE" stop-opacity="0"/></linearGradient><linearGradient id="k" x1="24.054" x2="24.054" y1="9.75" y2="22.438" gradientUnits="userSpaceOnUse"><stop stop-color="#E8C0DD"/><stop offset=".296" stop-color="#EED0DE"/><stop offset=".656" stop-color="#D0CFDE"/><stop offset="1" stop-color="#CDB9F2"/></linearGradient><linearGradient id="l" x1="22.188" x2="23.5" y1="10.938" y2="12.75" gradientUnits="userSpaceOnUse"><stop offset=".234" stop-color="#D2C8DC"/><stop offset="1" stop-color="#D2C8DC" stop-opacity="0"/></linearGradient><linearGradient id="m" x1="21.719" x2="22.906" y1="21.25" y2="19.813" gradientUnits="userSpaceOnUse"><stop stop-color="#C6B6D5"/><stop offset="1" stop-color="#C6B6D5" stop-opacity="0"/></linearGradient><linearGradient id="o" x1="9.75" x2="9.75" y1="22.125" y2="10.813" gradientUnits="userSpaceOnUse"><stop stop-color="#E8C0DD"/><stop offset=".296" stop-color="#EED0DE"/><stop offset=".656" stop-color="#D0CFDE"/><stop offset="1" stop-color="#CDB9F2"/></linearGradient><linearGradient id="p" x1="10.189" x2="8.322" y1="10.938" y2="13.375" gradientUnits="userSpaceOnUse"><stop offset=".234" stop-color="#D2C8DC"/><stop offset="1" stop-color="#D2C8DC" stop-opacity="0"/></linearGradient><linearGradient id="q" x1="10.938" x2="9.5" y1="21.25" y2="18.938" gradientUnits="userSpaceOnUse"><stop stop-color="#C6B6D5"/><stop offset="1" stop-color="#C6B6D5" stop-opacity="0"/></linearGradient><filter id="a" width="28.533" height="28.533" x="1.922" y="1.733" color-interpolation-filters="sRGB" filterUnits="userSpaceOnUse"><feFlood flood-opacity="0" result="BackgroundImageFix"/><feBlend in="SourceGraphic" in2="BackgroundImageFix" result="shape"/><feColorMatrix in="SourceAlpha" result="hardAlpha" values="0 0 0 0 0 0 0 0 0 0 0 0 0 0 0 0 0 0 127 0"/><feOffset dy="-.25"/><feGaussianBlur stdDeviation=".25"/><feComposite in2="hardAlpha" k2="-1" k3="1" operator="arithmetic"/><feColorMatrix values="0 0 0 0 0.623529 0 0 0 0 0.454902 0 0 0 0 0.764706 0 0 0 1 0"/><feBlend in2="shape" result="effect1_innerShadow_18_19843"/><feColorMatrix in="SourceAlpha" result="hardAlpha" values="0 0 0 0 0 0 0 0 0 0 0 0 0 0 0 0 0 0 127 0"/><feOffset dx=".25"/><feGaussianBlur stdDeviation=".25"/><feComposite in2="hardAlpha" k2="-1" k3="1" operator="arithmetic"/><feColorMatrix values="0 0 0 0 0.74902 0 0 0 0 0.737255 0 0 0 0 0.764706 0 0 0 1 0"/><feBlend in2="effect1_innerShadow_18_19843" result="effect2_innerShadow_18_19843"/><feColorMatrix in="SourceAlpha" result="hardAlpha" values="0 0 0 0 0 0 0 0 0 0 0 0 0 0 0 0 0 0 127 0"/><feOffset dx="-.25" dy=".25"/><feGaussianBlur stdDeviation=".25"/><feComposite in2="hardAlpha" k2="-1" k3="1" operator="arithmetic"/><feColorMatrix values="0 0 0 0 0.905882 0 0 0 0 0.882353 0 0 0 0 0.92549 0 0 0 1 0"/><feBlend in2="effect2_innerShadow_18_19843" result="effect3_innerShadow_18_19843"/></filter><filter id="c" width="26.732" height="26.732" x="2.822" y="2.634" color-interpolation-filters="sRGB" filterUnits="userSpaceOnUse"><feFlood flood-opacity="0" result="BackgroundImageFix"/><feBlend in="SourceGraphic" in2="BackgroundImageFix" result="shape"/><feGaussianBlur result="effect1_foregroundBlur_18_19843" stdDeviation=".125"/></filter><filter id="e" width="19.06" height="10.791" x="6.432" y="2.634" color-interpolation-filters="sRGB" filterUnits="userSpaceOnUse"><feFlood flood-opacity="0" result="BackgroundImageFix"/><feBlend in="SourceGraphic" in2="BackgroundImageFix" result="shape"/><feGaussianBlur result="effect1_foregroundBlur_18_19843" stdDeviation=".125"/></filter><filter id="g" width="18.532" height="10.52" x="6.943" y="18.846" color-interpolation-filters="sRGB" filterUnits="userSpaceOnUse"><feFlood flood-opacity="0" result="BackgroundImageFix"/><feBlend in="SourceGraphic" in2="BackgroundImageFix" result="shape"/><feGaussianBlur result="effect1_foregroundBlur_18_19843" stdDeviation=".125"/></filter><filter id="i" width="8.978" height="8.978" x="11.699" y="11.511" color-interpolation-filters="sRGB" filterUnits="userSpaceOnUse"><feFlood flood-opacity="0" result="BackgroundImageFix"/><feBlend in="SourceGraphic" in2="BackgroundImageFix" result="shape"/><feGaussianBlur result="effect1_foregroundBlur_18_19843" stdDeviation=".05"/></filter><filter id="j" width="11.5" height="18.096" x="18.304" y="7.356" color-interpolation-filters="sRGB" filterUnits="userSpaceOnUse"><feFlood flood-opacity="0" result="BackgroundImageFix"/><feBlend in="SourceGraphic" in2="BackgroundImageFix" result="shape"/><feGaussianBlur result="effect1_foregroundBlur_18_19843" stdDeviation=".25"/></filter><filter id="n" width="11.5" height="18.096" x="2.572" y="7.356" color-interpolation-filters="sRGB" filterUnits="userSpaceOnUse"><feFlood flood-opacity="0" result="BackgroundImageFix"/><feBlend in="SourceGraphic" in2="BackgroundImageFix" result="shape"/><feGaussianBlur result="effect1_foregroundBlur_18_19843" stdDeviation=".25"/></filter><filter id="r" width="8.928" height="8.678" x="11.599" y="11.661" color-interpolation-filters="sRGB" filterUnits="userSpaceOnUse"><feFlood flood-opacity="0" result="BackgroundImageFix"/><feBlend in="SourceGraphic" in2="BackgroundImageFix" result="shape"/><feColorMatrix in="SourceAlpha" result="hardAlpha" values="0 0 0 0 0 0 0 0 0 0 0 0 0 0 0 0 0 0 127 0"/><feOffset dx="-.25"/><feGaussianBlur stdDeviation=".25"/><feComposite in2="hardAlpha" k2="-1" k3="1" operator="arithmetic"/><feColorMatrix values="0 0 0 0 0.741176 0 0 0 0 0.678431 0 0 0 0 0.811765 0 0 0 1 0"/><feBlend in2="shape" result="effect1_innerShadow_18_19843"/></filter><radialGradient id="s" cx="0" cy="0" r="1" gradientTransform="translate(12.754 16)scale(9.23183)" gradientUnits="userSpaceOnUse"><stop offset=".62" stop-color="#C9B9DB"/><stop offset=".9" stop-color="#C7B8D4"/></radialGradient></defs></svg>
